!!!SOCIAL_FUNCTION:	war songs
!!!PDT:	1939
!!!OTL: No_105_Song_of_a_Returning_War_Party.krn
!!!LANG: Non-Tone
!!!LING_GROUP: Wakashan
!!!REG: Pacific Northwest
**kern
*staff1
=1-
=
*clefF4
*k[]
*M2/4
8A\L
8A\J
16A\
16r
8A\
=2
4A\
4r
=3||
*M7/8
8A\L
8A\
16A\Jk
16r
16A\
16r
8A\
8r
8B\
=4||
*M2/4
4B\
8A\L
8B\J
=5||
*M3/4
2A\
4r
=6||
*M2/4
8B\L
8A\J
16A\
16r
8A\
=7
4A\
4r
=8
8B\L
8A\J
16A\
16r
8E\
=9
8E\
8r
16A\
16r
16G\
16r
=10
8A\
8r
8A\L
8E\J
=11
4.E\
8r
=12
8G\L
8E\J
8E\L
8E\J
=13
4D\
4r
=14||
*M7/8
8E\L
8D\
16D\Jk
16r
16AA/
16r
8AA/
8r
8D\
=15||
*M2/4
4BB/
8r
8D\
=16||
*M3/4
2AA/
4r
=17||
*M2/4
8BB/L
8AA/J
8AA/L
8BB/J
=18
4BB/
8BB/
8r
=19:|!
=
2AA/
==
*-
